!!!COM: Debali, Francisco Jose
!!!CDT: 1791-1859
!!!OTL: National Anthem, Uruguay
!!!ENC: Davis, Matthew J.
!!Vocal Line Only
**kern
*clefG2
*k[b-e-]
*B-:
*M4/4
=1-
1r
=2
1r
=3
1r
=4
1r
=5
1r
=6
1r
=7
1r
=8
1r
=9
1r
=10
1r
=11
1r
=12
1r
=13
1r
=14
1r
=15
1r
=16
1r
=17
1r
=18
1r
=19
1r
=20
1r
==!|:21
1r
=22
1r
=23
1r
=24
1r
==:|!25
1r
=26
1r
=27
1r
=28
1r
=29
1r
=30
1r
==31
!Chorus
8.f
16f
=32
4f
8.d
16b-
4a
8.f
16cc
=33
4b-
4b-
4r
8.dd
16dd
=34
4dd
8.cc
16b-
4a
8.b-
16a
=35
4g
4r
4r
8.fn
16fn
=26
4f
8.d
16b-
4a
8.f
16cc
=37
4b-
4b-
4r
8.dd
16cc
=38
4cc
8.a
16f
4c
8.a
16g
=39
4f
4r
4r
8.f
16f
=40
8.f
16g
8.a
16b-
8.cc
16a
8.g
16f
=41
[4f
8f]
8b-
4f
8.f
16a
=42
8.cc
16b-
8.a
16g
8.f
16e-
8.d
16c
==!|:43
2B-
4.d
8d
=44
4e-
8e-
8e-
4en
8en
8en
=45
4f
4f
4.f#
8f#
=46
4g
8g
8g
4e-
8en
8en
=47
2f
4d
4d
=48
2e-
4c
4c
==:|!49
4B-
4r
2r
=50
4r
4a
4a
8.a
16a
=51
4b-
4r
2r
=52
4r
4a
4a
8.a
16a
=53
4b-
4a
4b-
8.a
16a
=54
4b-
4r
2r
=55
1r
=56
2r
4r
==57
!Verse
8.f
16en
==!|:58
4f
8.d
16b-
4a
8.f
16cc
=59
4.b-
16a
16g
4f
8.b-
16b-
=60
4b-
8.a
16g
4a
8.b-
16a
=61
4g
4r
4r
8.f
16en
=62
4f
8.d
16b-
4a
8.f
16cc
=63
4b-
4b-
4r
8.b-
16bn
=64
4cc
8.a
16f
4c
8.a
16g
=65
!First Ending
4f
4r
4r
8.f
16en
==:|!66
!Second Ending
4f
4r
4r
8.a
16b-
=67
4.a
8b-
8a
8b-
8a
8g#
=68
4.a
8f
4d
8.g
16a
=69
4.g
8a
8g
8a
8g
8f#
=70
4.g
!Chorus
8g
4a-
8a-
8a-
=71
4.g
8g
4a-
8a-
8a-
=72
4g
!Verse
4g
2cc
8.c
16c
=73
8.c
16d
8.en
16f
8.g
16a
8.b-
16bn
=74
4.cc
8a
4f
8.d
16d
=75
4d
8f#
8a
8cc
16dd
16cc
8b-
8a
=76
2g
4r
!Chorus
8.en
16d
=77
8.c
16d
8.en
16f
8.g
16a
8.b-
16bn
=78
4.cc
16b-
16a
4.b-
8a
8g
=79
4.a
16g
16f
4.g
16f
16en
=80
4.cc
16b-
16a
4.b-
16a
16g
=81
4.a
16g
16f
4.g
16f
16en
=82
4f
4r
2r
=83
4r
4en
4en
8.en
16en
=84
4f
4r
2r
=85
4r
4en
4en
8.en
16en
=86
4f
4r
4r
8.dd
16cc
=87
4cc
8.a
16f
4c
8.a
16g
=88
4f
4r
4r
8.f
16f
=89
8.f
16g
8.a
16b-
8.cc
16a
8.g
16f
=90
[4f
8f]
8b-
4f
8.f
16a
=91
8.cc
16b-
8.a
16g
8.f
16e-
8.d
16B
==!|:92
2B-
4.d
8d
=93
4e-
8e-
8e-
4en
8en
8en
=94
4f
4f
4.f#
8g-
=95
4g
8g
8g
4e-
8en
8en
=96
2f
4d
4d
=97
2e-
4c
4c
==:|!98
4B-
4r
2r
=99
4r
4a
4a
8.a
16a
=100
4b-
4r
2r
=101
4r
4a
4a
8.a
16a
=102
4b-
4a
4b-
8.a
16a
=103
4b-
4r
2r
=104
1r
=105
1r
==|!
*-
